media/icons/icon-phone-grey.svg

<svg xmlns="http://www.w3.org/2000/svg" width="16" height="14" viewBox="0 0 16 14"><path fill="#57626C" d="M10.5 4h-5c-.2 0-.3.1-.4.2l-4 5.5c-.1.1-.1.2-.1.3v3.5c0 .3.2.5.5.5h13c.3 0 .5-.2.5-.5v-3.5c0-.1 0-.2-.1-.3l-4-5.5c-.1-.1-.2-.2-.4-.2zm-5.5 5c0-1.7 1.3-3 3-3s3 1.3 3 3-1.3 3-3 3-3-1.3-3-3zm-4.5-3.3c0-.1-.5-1.6-.5-2.7 0-1 1.6-1.7 2.6-2.1 1.6-.6 3.5-.9 5.4-.9 1.9 0 3.8.3 5.4.9 1 .4 2.6 1.1 2.6 2.1 0 1.1-.5 2.6-.5 2.7-.1.2-.3.3-.5.3h-.1l-1.7-.4-1.5-2c-.3-.4-.7-.6-1.2-.6h-5c-.5 0-.9.2-1.2.6l-1.5 2-1.7.4h-.1c-.2 0-.4-.1-.5-.3z"></path></svg>

<svg width="16px" height="14px" viewBox="0 0 16 14" version="1.1" xmlns="http://www.w3.org/2000/svg" xmlns:xlink="http://www.w3.org/1999/xlink">
    <!-- Generator: Sketch 43.2 (39069) - http://www.bohemiancoding.com/sketch -->
    <desc>Created with Sketch.</desc>
    <defs></defs>
    <g id="Page-1" stroke="none" stroke-width="1" fill="none" fill-rule="evenodd">
        <g id="icon-phone" transform="translate(-30.000000, -31.000000)" fill-rule="nonzero" fill="#57626C">
            <g id="icon-phone-grey" transform="translate(30.000000, 31.000000)">
                <path d="M10.5,4 L5.5,4 C5.3,4 5.2,4.1 5.1,4.2 L1.1,9.7 C1,9.8 1,9.9 1,10 L1,13.5 C1,13.8 1.2,14 1.5,14 L14.5,14 C14.8,14 15,13.8 15,13.5 L15,10 C15,9.9 15,9.8 14.9,9.7 L10.9,4.2 C10.8,4.1 10.7,4 10.5,4 L10.5,4 Z M5,9 C5,7.3 6.3,6 8,6 C9.7,6 11,7.3 11,9 C11,10.7 9.7,12 8,12 C6.3,12 5,10.7 5,9 Z M0.5,5.7 C0.5,5.6 0,4.1 0,3 C0,2 1.6,1.3 2.6,0.9 C4.2,0.3 6.1,-1.11022302e-16 8,-1.11022302e-16 C9.9,-1.11022302e-16 11.8,0.3 13.4,0.9 C14.4,1.3 16,2 16,3 C16,4.1 15.5,5.6 15.5,5.7 C15.4,5.9 15.2,6 15,6 L14.9,6 L13.2,5.6 L11.7,3.6 C11.4,3.2 11,3 10.5,3 L5.5,3 C5,3 4.6,3.2 4.3,3.6 L2.8,5.6 L1.1,6 L1,6 C0.8,6 0.6,5.9 0.5,5.7 L0.5,5.7 Z" id="Shape"></path>
            </g>
        </g>
    </g>
</svg>
